Newaita-dark/.places-default/128/folder-games.svg

<?xml version="1.0" encoding="UTF-8"?>
<svg xmlns="http://www.w3.org/2000/svg" xmlns:xlink="http://www.w3.org/1999/xlink" width="128pt" height="128pt" viewBox="0 0 128 128" version="1.1">
<defs>
<linearGradient id="linear0" gradientUnits="userSpaceOnUse" x1="254" y1="233.5" x2="254" y2="254.666672" gradientTransform="matrix(0.250024,0,0,0.250024,-0.0000152602,53.75514)">
<stop offset="0" style="stop-color:rgb(0%,0%,0%);stop-opacity:0.27451;"/>
<stop offset="1" style="stop-color:rgb(0%,0%,0%);stop-opacity:0;"/>
</linearGradient>
<radialGradient id="radial0" gradientUnits="userSpaceOnUse" cx="450.908936" cy="189.579361" fx="450.908936" fy="189.579361" r="21.166656" gradientTransform="matrix(0.000000696681,-0.31253,-0.562554,-0.000000406154,216.460851,254.38133)">
<stop offset="0" style="stop-color:rgb(0%,0%,0%);stop-opacity:0.313725;"/>
<stop offset="0.222222" style="stop-color:rgb(0%,0%,0%);stop-opacity:0.27451;"/>
<stop offset="1" style="stop-color:rgb(0%,0%,0%);stop-opacity:0;"/>
</radialGradient>
<radialGradient id="radial1" gradientUnits="userSpaceOnUse" cx="450.908936" cy="189.579361" fx="450.908936" fy="189.579361" r="21.166656" gradientTransform="matrix(-0.000000696681,0.31253,0.562554,0.000000406154,-89.448711,-30.109915)">
<stop offset="0" style="stop-color:rgb(0%,0%,0%);stop-opacity:0.313725;"/>
<stop offset="0.222222" style="stop-color:rgb(0%,0%,0%);stop-opacity:0.27451;"/>
<stop offset="1" style="stop-color:rgb(0%,0%,0%);stop-opacity:0;"/>
</radialGradient>
<radialGradient id="radial2" gradientUnits="userSpaceOnUse" cx="450.908936" cy="189.579361" fx="450.908936" fy="189.579361" r="21.166656" gradientTransform="matrix(-0.000000696681,-0.31253,0.562554,-0.000000406154,-89.448711,254.38133)">
<stop offset="0" style="stop-color:rgb(0%,0%,0%);stop-opacity:0.313725;"/>
<stop offset="0.222222" style="stop-color:rgb(0%,0%,0%);stop-opacity:0.27451;"/>
<stop offset="1" style="stop-color:rgb(0%,0%,0%);stop-opacity:0;"/>
</radialGradient>
<radialGradient id="radial3" gradientUnits="userSpaceOnUse" cx="450.908936" cy="189.579361" fx="450.908936" fy="189.579361" r="21.166656" gradientTransform="matrix(0.000000696681,0.31253,-0.562554,0.000000406154,216.460843,-30.109917)">
<stop offset="0" style="stop-color:rgb(0%,0%,0%);stop-opacity:0.313725;"/>
<stop offset="0.222222" style="stop-color:rgb(0%,0%,0%);stop-opacity:0.27451;"/>
<stop offset="1" style="stop-color:rgb(0%,0%,0%);stop-opacity:0;"/>
</radialGradient>
<linearGradient id="linear1" gradientUnits="userSpaceOnUse" x1="296.333344" y1="233.5" x2="296.333344" y2="-147.5" gradientTransform="matrix(0.250024,0,0,0.250024,0,53.755133)">
<stop offset="0" style="stop-color:rgb(55.294118%,43.137255%,38.823529%);stop-opacity:1;"/>
<stop offset="1" style="stop-color:rgb(63.137255%,53.333333%,49.803922%);stop-opacity:1;"/>
</linearGradient>
<linearGradient id="linear2" gradientUnits="userSpaceOnUse" x1="254" y1="-147.5" x2="254" y2="233.5" gradientTransform="matrix(0.250024,0,0,0.250024,0,53.755132)">
<stop offset="0" style="stop-color:rgb(84.313725%,80%,78.431373%);stop-opacity:1;"/>
<stop offset="1" style="stop-color:rgb(73.72549%,66.666667%,64.313725%);stop-opacity:1;"/>
</linearGradient>
<linearGradient id="linear3" gradientUnits="userSpaceOnUse" x1="964.384827" y1="1615.116333" x2="964.384766" y2="175.116287" gradientTransform="matrix(0.264583,0,0,0.264583,-0.000472867,-194.081924)">
<stop offset="0" style="stop-color:rgb(55.294118%,43.137255%,38.823529%);stop-opacity:1;"/>
<stop offset="1" style="stop-color:rgb(63.137255%,53.333333%,49.803922%);stop-opacity:1;"/>
</linearGradient>
</defs>
<g id="surface1">
<path style=" stroke:none;fill-rule:nonzero;fill:url(#linear0);" d="M 15.875 112.136719 L 111.136719 112.136719 L 111.136719 117.429688 L 15.875 117.429688 Z M 15.875 112.136719 "/>
<path style=" stroke:none;fill-rule:nonzero;fill:url(#radial0);" d="M 111.136719 112.136719 L 121.71875 112.136719 L 121.71875 106.84375 L 111.136719 106.84375 Z M 111.136719 112.136719 "/>
<path style=" stroke:none;fill-rule:nonzero;fill:url(#radial1);" d="M 15.875 112.136719 L 5.292969 112.136719 L 5.292969 117.429688 L 15.875 117.429688 Z M 15.875 112.136719 "/>
<path style=" stroke:none;fill-rule:nonzero;fill:url(#radial2);" d="M 15.875 112.136719 L 5.292969 112.136719 L 5.292969 106.84375 L 15.875 106.84375 Z M 15.875 112.136719 "/>
<path style=" stroke:none;fill-rule:nonzero;fill:url(#radial3);" d="M 111.136719 112.136719 L 121.71875 112.136719 L 121.71875 117.429688 L 111.136719 117.429688 Z M 111.136719 112.136719 "/>
<path style=" stroke:none;fill-rule:nonzero;fill:url(#linear1);" d="M 29.105469 16.875 L 115.105469 16.875 C 118.027344 16.875 120.398438 19.246094 120.398438 22.167969 L 120.398438 42.015625 C 120.398438 44.9375 118.027344 47.304688 115.105469 47.304688 L 29.105469 47.304688 C 26.183594 47.304688 23.816406 44.9375 23.816406 42.015625 L 23.816406 22.167969 C 23.816406 19.246094 26.183594 16.875 29.105469 16.875 Z M 29.105469 16.875 "/>
<path style=" stroke:none;fill-rule:nonzero;fill:rgb(90.196079%,90.196079%,90.196079%);fill-opacity:0.588235;" d="M 29.105469 16.875 C 26.175781 16.875 23.816406 19.238281 23.816406 22.167969 L 23.816406 22.832031 C 23.816406 19.898438 26.175781 17.539062 29.105469 17.539062 L 115.105469 17.539062 C 118.035156 17.539062 120.398438 19.898438 120.398438 22.832031 L 120.398438 22.167969 C 120.398438 19.238281 118.035156 16.875 115.105469 16.875 Z M 29.105469 16.875 "/>
<path style=" stroke:none;fill-rule:nonzero;fill:rgb(12.941177%,12.941177%,12.941177%);fill-opacity:1;" d="M 29.105469 16.5 C 25.972656 16.5 23.441406 19.035156 23.441406 22.167969 L 23.441406 42.015625 C 23.441406 45.148438 25.972656 47.683594 29.105469 47.683594 L 115.105469 47.683594 C 118.238281 47.683594 120.773438 45.148438 120.773438 42.015625 L 120.773438 22.167969 C 120.773438 19.035156 118.238281 16.5 115.105469 16.5 Z M 29.105469 17.25 L 115.105469 17.25 C 117.835938 17.25 120.023438 19.4375 120.023438 22.167969 L 120.023438 42.015625 C 120.023438 44.746094 117.835938 46.933594 115.105469 46.933594 L 29.105469 46.933594 C 26.375 46.933594 24.191406 44.746094 24.191406 42.015625 L 24.191406 22.167969 C 24.191406 19.4375 26.375 17.25 29.105469 17.25 Z M 29.105469 17.25 "/>
<path style=" stroke:none;fill-rule:nonzero;fill:url(#linear2);" d="M 10.585938 27.460938 C 7.652344 27.460938 5.292969 29.820312 5.292969 32.753906 L 5.292969 106.84375 C 5.292969 109.773438 7.652344 112.136719 10.585938 112.136719 L 116.429688 112.136719 C 119.359375 112.136719 121.71875 109.773438 121.71875 106.84375 L 121.71875 40.691406 L 50.277344 40.691406 C 47.34375 40.691406 44.984375 38.332031 44.984375 35.398438 L 44.984375 27.460938 Z M 10.585938 27.460938 "/>
<path style=" stroke:none;fill-rule:nonzero;fill:rgb(0%,0%,0%);fill-opacity:0.196078;" d="M 10.585938 112.136719 C 7.652344 112.136719 5.292969 109.777344 5.292969 106.84375 L 5.292969 106.183594 C 5.292969 109.113281 7.652344 111.472656 10.585938 111.472656 L 116.429688 111.472656 C 119.359375 111.472656 121.71875 109.113281 121.71875 106.183594 L 121.71875 106.84375 C 121.71875 109.777344 119.359375 112.136719 116.429688 112.136719 Z M 10.585938 112.136719 "/>
<path style=" stroke:none;fill-rule:nonzero;fill:rgb(90.196079%,90.196079%,90.196079%);fill-opacity:0.937255;" d="M 10.585938 27.460938 C 7.652344 27.460938 5.292969 29.820312 5.292969 32.753906 L 5.292969 33.414062 C 5.292969 30.484375 7.652344 28.121094 10.585938 28.121094 L 44.984375 28.121094 L 44.984375 27.460938 Z M 10.585938 27.460938 "/>
<path style=" stroke:none;fill-rule:nonzero;fill:rgb(90.196079%,90.196079%,90.196079%);fill-opacity:0.937255;" d="M 49.945312 41.023438 C 47.011719 41.023438 44.652344 38.660156 44.652344 35.730469 L 44.652344 35.070312 C 44.652344 38 47.011719 40.367188 49.945312 40.359375 L 121.71875 40.359375 L 121.71875 41.023438 Z M 49.945312 41.023438 "/>
<path style=" stroke:none;fill-rule:nonzero;fill:rgb(12.941177%,12.941177%,12.941177%);fill-opacity:1;" d="M 10.585938 27.085938 C 7.453125 27.085938 4.917969 29.621094 4.917969 32.753906 L 4.917969 106.84375 C 4.917969 109.976562 7.453125 112.511719 10.585938 112.511719 L 116.429688 112.511719 C 119.5625 112.511719 122.09375 109.976562 122.09375 106.84375 L 122.09375 39.941406 L 50.277344 39.941406 C 47.546875 39.941406 45.359375 37.753906 45.359375 35.023438 L 45.359375 27.085938 Z M 10.585938 27.835938 L 44.609375 27.835938 L 44.609375 35.023438 C 44.609375 38.15625 47.140625 40.691406 50.277344 40.691406 L 121.34375 40.691406 L 121.34375 106.84375 C 121.34375 109.574219 119.160156 111.761719 116.429688 111.761719 L 10.585938 111.761719 C 7.855469 111.761719 5.667969 109.574219 5.667969 106.84375 L 5.667969 32.753906 C 5.667969 30.023438 7.855469 27.835938 10.585938 27.835938 Z M 10.585938 27.835938 "/>
<path style="fill-rule:nonzero;fill:url(#linear3);stroke-width:3;stroke-linecap:square;stroke-linejoin:round;stroke:rgb(12.941177%,12.941177%,12.941177%);stroke-opacity:1;stroke-miterlimit:4;" d="M 254.006994 -9.91021 C 252.882101 -9.91021 251.788455 -9.519622 250.913539 -8.800941 C 246.085875 -5.020052 242.820562 -1.926597 240.633271 1.057493 C 238.44598 4.041583 237.133605 7.463131 237.992898 10.869056 C 238.852191 14.259357 241.367576 16.227919 243.539243 17.52467 C 245.726534 18.805798 247.976319 19.680714 250.06987 20.571254 C 254.25697 22.33671 257.022331 24.164661 257.475412 25.461412 C 257.709765 26.101976 257.866 27.10188 256.944213 29.41416 C 256.022426 31.726439 253.9445 35.132364 250.210481 39.491322 C 249.413682 40.397486 248.991847 41.553625 248.976224 42.756635 L 227.540771 42.756635 C 220.869533 36.194762 211.714157 32.163897 201.574501 32.163897 C 181.045211 32.163897 164.531163 48.693569 164.531163 69.207235 C 164.531163 79.346891 168.562028 88.51789 175.123902 95.189128 C 175.123902 95.345363 175.108278 95.501599 175.108278 95.673457 L 175.108278 137.99754 C 175.108278 149.730795 183.810572 159.167394 194.606416 159.167394 L 197.949847 159.167394 C 208.745691 159.167394 217.447985 149.730795 217.447985 137.99754 L 217.447985 102.704036 C 221.21325 100.938579 224.619175 98.548183 227.540771 95.673457 L 280.457593 95.673457 C 283.5198 98.673171 287.097584 101.141685 291.034708 102.938388 L 291.034708 137.99754 C 291.034708 149.730795 299.737002 159.167394 310.532846 159.167394 L 313.876276 159.167394 C 324.687744 159.167394 333.374414 149.730795 333.374414 137.99754 L 333.374414 95.673457 C 333.374414 95.345363 333.358791 95.01727 333.358791 94.689176 C 339.623818 88.064809 343.467201 79.096915 343.467201 69.207235 C 343.467201 48.693569 326.953153 32.163897 306.423863 32.163897 C 296.284206 32.163897 287.128831 36.194762 280.457593 42.756635 L 260.443879 42.756635 C 263.162369 39.225723 265.052814 36.101021 266.2402 33.116931 C 267.786928 29.242301 268.068151 25.367671 266.896388 22.086734 C 264.537238 15.524861 258.365952 13.228205 253.960123 11.353384 C 251.757208 10.431597 249.788646 9.603551 248.64813 8.916117 C 248.163802 8.634894 247.991943 8.478659 247.851331 8.353671 C 247.960696 8.119318 248.132555 7.744354 248.695001 6.963179 C 249.960505 5.244593 252.647748 2.541726 257.084825 -0.942316 C 258.803411 -2.254691 259.490845 -4.504476 258.787787 -6.535532 C 258.084729 -8.582212 256.163038 -9.941457 254.006994 -9.91021 Z M 254.006994 -9.91021 " transform="matrix(0.250024,0,0,0.250024,0,53.755133)"/>
</g>
</svg>

<svg xmlns="http://www.w3.org/2000/svg" width="128pt" height="128pt" viewBox="0 0 128 128"><defs><linearGradient id="a" gradientUnits="userSpaceOnUse" x1="254" y1="233.5" x2="254" y2="254.667" gradientTransform="matrix(.25002 0 0 .25002 0 53.755)"><stop offset="0" stop-opacity=".275"/><stop offset="1" stop-opacity="0"/></linearGradient><radialGradient id="b" gradientUnits="userSpaceOnUse" cx="450.909" cy="189.579" fx="450.909" fy="189.579" r="21.167" gradientTransform="matrix(0 -.31253 -.56255 0 216.46 254.381)"><stop offset="0" stop-opacity=".314"/><stop offset=".222" stop-opacity=".275"/><stop offset="1" stop-opacity="0"/></radialGradient><radialGradient id="c" gradientUnits="userSpaceOnUse" cx="450.909" cy="189.579" fx="450.909" fy="189.579" r="21.167" gradientTransform="matrix(0 .31253 .56255 0 -89.449 -30.11)"><stop offset="0" stop-opacity=".314"/><stop offset=".222" stop-opacity=".275"/><stop offset="1" stop-opacity="0"/></radialGradient><radialGradient id="d" gradientUnits="userSpaceOnUse" cx="450.909" cy="189.579" fx="450.909" fy="189.579" r="21.167" gradientTransform="matrix(0 -.31253 .56255 0 -89.449 254.381)"><stop offset="0" stop-opacity=".314"/><stop offset=".222" stop-opacity=".275"/><stop offset="1" stop-opacity="0"/></radialGradient><radialGradient id="e" gradientUnits="userSpaceOnUse" cx="450.909" cy="189.579" fx="450.909" fy="189.579" r="21.167" gradientTransform="matrix(0 .31253 -.56255 0 216.46 -30.11)"><stop offset="0" stop-opacity=".314"/><stop offset=".222" stop-opacity=".275"/><stop offset="1" stop-opacity="0"/></radialGradient><linearGradient id="f" gradientUnits="userSpaceOnUse" x1="296.333" y1="233.5" x2="296.333" y2="-147.5" gradientTransform="matrix(.25002 0 0 .25002 0 53.755)"><stop offset="0" stop-color="#8d6e63"/><stop offset="1" stop-color="#a1887f"/></linearGradient><linearGradient id="g" gradientUnits="userSpaceOnUse" x1="254" y1="-147.5" x2="254" y2="233.5" gradientTransform="matrix(.25002 0 0 .25002 0 53.755)"><stop offset="0" stop-color="#d7ccc8"/><stop offset="1" stop-color="#bcaaa4"/></linearGradient><linearGradient id="h" gradientUnits="userSpaceOnUse" x1="964.385" y1="1615.116" x2="964.385" y2="175.116" gradientTransform="matrix(.26458 0 0 .26458 0 -194.082)"><stop offset="0" stop-color="#8d6e63"/><stop offset="1" stop-color="#a1887f"/></linearGradient></defs><path d="M15.875 112.137h95.262v5.293H15.875zm0 0" fill="url(#a)"/><path d="M111.137 112.137h10.582v-5.293h-10.582zm0 0" fill="url(#b)"/><path d="M15.875 112.137H5.293v5.293h10.582zm0 0" fill="url(#c)"/><path d="M15.875 112.137H5.293v-5.293h10.582zm0 0" fill="url(#d)"/><path d="M111.137 112.137h10.582v5.293h-10.582zm0 0" fill="url(#e)"/><path d="M29.105 16.875h86a5.295 5.295 0 0 1 5.293 5.293v19.848a5.291 5.291 0 0 1-5.293 5.289h-86a5.288 5.288 0 0 1-5.289-5.29V22.169a5.291 5.291 0 0 1 5.29-5.293zm0 0" fill="url(#f)"/><path d="M29.105 16.875a5.281 5.281 0 0 0-5.289 5.293v.664a5.279 5.279 0 0 1 5.29-5.293h86c2.93 0 5.292 2.36 5.292 5.293v-.664a5.285 5.285 0 0 0-5.293-5.293zm0 0" fill="#e6e6e6" fill-opacity=".588"/><path d="M29.105 16.5a5.661 5.661 0 0 0-5.664 5.668v19.848a5.661 5.661 0 0 0 5.664 5.668h86a5.665 5.665 0 0 0 5.668-5.668V22.168a5.665 5.665 0 0 0-5.668-5.668zm0 .75h86a4.9 4.9 0 0 1 4.918 4.918v19.848a4.9 4.9 0 0 1-4.918 4.918h-86a4.896 4.896 0 0 1-4.914-4.918V22.168a4.896 4.896 0 0 1 4.914-4.918zm0 0" fill="#212121"/><path d="M10.586 27.46a5.28 5.28 0 0 0-5.293 5.294v74.09c0 2.93 2.36 5.293 5.293 5.293H116.43c2.93 0 5.289-2.364 5.289-5.293V40.69H50.277a5.28 5.28 0 0 1-5.293-5.293v-7.937zm0 0" fill="url(#g)"/><path d="M10.586 112.137a5.28 5.28 0 0 1-5.293-5.293v-.66c0 2.93 2.36 5.289 5.293 5.289H116.43c2.93 0 5.289-2.36 5.289-5.29v.66a5.279 5.279 0 0 1-5.29 5.294zm0 0" fill-opacity=".196"/><path d="M10.586 27.46a5.28 5.28 0 0 0-5.293 5.294v.66c0-2.93 2.36-5.293 5.293-5.293h34.398v-.66zm0 0M49.945 41.023a5.282 5.282 0 0 1-5.293-5.293v-.66c0 2.93 2.36 5.297 5.293 5.29h71.774v.663zm0 0" fill="#e6e6e6" fill-opacity=".937"/><path d="M10.586 27.086a5.665 5.665 0 0 0-5.668 5.668v74.09a5.665 5.665 0 0 0 5.668 5.668H116.43a5.661 5.661 0 0 0 5.664-5.668V39.94H50.277a4.9 4.9 0 0 1-4.918-4.918v-7.937zm0 .75h34.023v7.187a5.662 5.662 0 0 0 5.668 5.668h71.067v66.153a4.896 4.896 0 0 1-4.914 4.918H10.586a4.9 4.9 0 0 1-4.918-4.918v-74.09a4.9 4.9 0 0 1 4.918-4.918zm0 0" fill="#212121"/><path d="M254.007-9.91c-1.125 0-2.219.39-3.093 1.11-4.828 3.78-8.093 6.873-10.28 9.857-2.188 2.985-3.5 6.406-2.641 9.812.86 3.39 3.375 5.359 5.546 6.656 2.188 1.28 4.437 2.156 6.53 3.046 4.188 1.766 6.953 3.594 7.406 4.89.235.641.391 1.64-.53 3.953-.923 2.312-3 5.718-6.735 10.077a5.017 5.017 0 0 0-1.234 3.266h-21.435c-6.671-6.562-15.827-10.593-25.966-10.593-20.53 0-37.044 16.53-37.044 37.043 0 10.14 4.031 19.31 10.593 25.982 0 .156-.016.313-.016.484v42.325c0 11.733 8.703 21.17 19.498 21.17h3.344c10.796 0 19.498-9.437 19.498-21.17v-35.294a36.479 36.479 0 0 0 10.093-7.03h52.917c3.062 3 6.64 5.468 10.577 7.264v35.06c0 11.733 8.702 21.17 19.498 21.17h3.343c10.812 0 19.498-9.437 19.498-21.17V95.673c0-.328-.015-.656-.015-.984 6.265-6.624 10.108-15.592 10.108-25.482 0-20.513-16.514-37.043-37.043-37.043-10.14 0-19.295 4.03-25.966 10.593h-20.014c2.718-3.531 4.609-6.656 5.796-9.64 1.547-3.875 1.828-7.75.656-11.03-2.359-6.562-8.53-8.859-12.936-10.734-2.203-.921-4.171-1.75-5.312-2.437-.484-.281-.656-.437-.797-.562.11-.235.282-.61.844-1.39 1.266-1.72 3.953-4.422 8.39-7.906a4.985 4.985 0 0 0 1.703-5.594 4.977 4.977 0 0 0-4.781-3.374zm0 0" transform="matrix(.25002 0 0 .25002 0 53.755)" fill="url(#h)" stroke-width="3" stroke-linecap="square" stroke-linejoin="round" stroke="#212121"/></svg>
